X: 86
T: Nutting Time.
C: G. M. S.
N: Copyright, 1916, by the Cable Company.
%R: air, march
B: "The Everyday Song Book", 1927
F: http://www.library.pitt.edu/happybirthday/pdf/The_Everyday_Song_Book.pdf
Z: 2017 John Chambers <jc:trillian.mit.edu>
M: 4/4
L: 1/4
K: Eb
% - - - - - - - - - - - - - - - - - - - - - - - - - - - - -
B | G F E B | c d B B | e d c d | B3 |]
w: At ev-'ry turn the ma-ples burn, The quail is whist-ling free,
%
B | c A F F | B G E E | F G A B | E3 |]
w: The par-tridge whirs, the frost-ed burrs Are here for you and me.
% - - - - - - - - - - - - - - - - - - - - - - - - - - - - -

%%sep 1 1 500
%%sep 1 1 500

